; generated by Slic3r 1.2.9 on 2020-02-15 at 12:36:49

; external perimeters extrusion width = 0.50mm
; perimeters extrusion width = 0.72mm
; infill extrusion width = 0.72mm
; solid infill extrusion width = 0.72mm
; top infill extrusion width = 0.72mm
; support material extrusion width = 0.50mm

M107
M104 S190 ; set temperature
G28 ; home all axes
(G1 Z5 F5000 ; lift nozzle)

M109 S190 ; wait for temperature to be reached
G21 ; set units to millimeters
G90 ; use absolute coordinates
M82 ; use absolute distances for extrusion
G92 E0
G1 Z0.350 F6600.000
G1 E-2.00000 F2400.00000
G92 E0
G1 X67.400 Y52.059 F6600.000
G1 E2.00000 F2400.00000
G1 X68.070 Y51.317 E2.01360 F1800.000
G1 X77.070 Y42.817 E2.18210
G1 X77.559 Y42.400 E2.19084
G1 X78.180 Y41.924 E2.20150
G1 X79.599 Y41.105 E2.22379
G1 X80.322 Y40.805 E2.23445
G1 X81.905 Y40.381 E2.25675
G1 X82.681 Y40.279 E2.26742
G1 X83.500 Y40.225 E2.27858
G1 X116.500 Y40.225 E2.72775
G1 X117.319 Y40.279 E2.73892
G1 X118.096 Y40.381 E2.74959 F1800.000
G1 X119.678 Y40.805 E2.77188
G1 X120.402 Y41.105 E2.78254
G1 X121.820 Y41.924 E2.80483
G1 X122.441 Y42.400 E2.81549
G1 X123.599 Y43.559 E2.83778
G1 X124.076 Y44.180 E2.84845
G1 X124.851 Y45.495 E2.86922
G1 X132.253 Y62.495 E3.12159
G1 X132.588 Y63.478 E3.13573
G1 X134.588 Y71.478 E3.24797
G1 X134.775 Y73.000 E3.26884
G1 X134.775 Y142.000 E4.20800
G1 X134.721 Y142.819 E4.21918
G1 X134.619 Y143.595 E4.22984
G1 X134.195 Y145.177 E4.25213
G1 X133.895 Y145.901 E4.26279
G1 X133.076 Y147.320 E4.28509
G1 X132.599 Y147.942 E4.29576
G1 X131.930 Y148.683 E4.30935
G1 X122.930 Y157.183 E4.47785
G1 X122.441 Y157.599 E4.48658
G1 X121.820 Y158.076 E4.49725
G1 X120.402 Y158.895 E4.51952
G1 X119.678 Y159.195 E4.53020
G1 X118.097 Y159.619 E4.55248
G1 X117.319 Y159.721 E4.56316
G1 X116.500 Y159.775 E4.57433
G1 X83.500 Y159.775 E5.02350
G1 X82.681 Y159.721 E5.03467
G1 X81.905 Y159.619 E5.04533
G1 X80.322 Y159.195 E5.06763
G1 X79.599 Y158.895 E5.07829
G1 X78.180 Y158.076 E5.10058
G1 X77.558 Y157.599 E5.11124
G1 X76.401 Y156.441 E5.13353
G1 X75.924 Y155.820 E5.14419
G1 X75.149 Y154.505 E5.16497
G1 X67.747 Y137.505 E5.41734
G1 X67.412 Y136.522 E5.43147
G1 X65.412 Y128.522 E5.54371
G1 X65.225 Y127.000 E5.56459
G1 X65.225 Y58.000 E6.50375
G1 X65.279 Y57.181 E6.51492
G1 X65.381 Y56.404 E6.52558
G1 X65.805 Y54.822 E6.54788
G1 X66.105 Y54.099 E6.55854
G1 X66.924 Y52.680 E6.58083
G1 X67.355 Y52.118 E6.59047
G1 E4.59047 F2400.00000
G92 E0
G1 X89.246 Y144.451 F6600.000
G1 E2.00000 F2400.00000
G1 X89.903 Y145.355 E2.01519 F1800.000
G1 X90.314 Y146.392 E2.03039
G1 X90.453 Y147.500 E2.04558
G1 X90.314 Y148.608 E2.06078
G1 X89.903 Y149.645 E2.07597
G1 X89.246 Y150.549 E2.09117
G1 X88.386 Y151.260 E2.10636
G1 X87.376 Y151.736 E2.12156
G1 X86.280 Y151.945 E2.13675
G1 X85.166 Y151.875 E2.15195
G1 X84.104 Y151.530 E2.16714
G1 X83.161 Y150.931 E2.18233
G1 X82.397 Y150.118 E2.19753
G1 X81.859 Y149.139 E2.21272
G1 X81.581 Y148.057 E2.22793
G1 X81.586 Y146.924 E2.24336
G1 X81.859 Y145.861 E2.25830
G1 X82.397 Y144.882 E2.27349
G1 X83.161 Y144.069 E2.28869
G1 X84.104 Y143.470 E2.30388
G1 X85.166 Y143.125 E2.31908
G1 X86.261 Y143.056 E2.33402 F1800.000
G1 X87.375 Y143.264 E2.34945
G1 X88.386 Y143.740 E2.36465
G1 X89.189 Y144.404 E2.37883
G1 X89.044 Y144.641 F6600.000
G1 X89.660 Y145.488 E2.39308 F1800.000
G1 X90.045 Y146.461 E2.40733
G1 X90.176 Y147.500 E2.42158
G1 X90.045 Y148.539 E2.43583
G1 X89.660 Y149.512 E2.45007
G1 X89.044 Y150.359 E2.46432
G1 X88.238 Y151.026 E2.47857
G1 X87.291 Y151.472 E2.49282
G1 X86.262 Y151.668 E2.50707
G1 X85.217 Y151.602 E2.52132
G1 X84.222 Y151.279 E2.53557
G1 X83.338 Y150.718 E2.54982
G1 X82.621 Y149.955 E2.56407
G1 X82.117 Y149.037 E2.57832
G1 X81.856 Y148.023 E2.59257
G1 X81.861 Y146.959 E2.60705
G1 X82.117 Y145.963 E2.62106
G1 X82.621 Y145.045 E2.63531
G1 X83.338 Y144.282 E2.64956
G1 X84.222 Y143.721 E2.66381
G1 X85.217 Y143.398 E2.67805
G1 X86.244 Y143.333 E2.69206 F1800.000
G1 X87.290 Y143.528 E2.70654
G1 X88.238 Y143.974 E2.72079
G1 X88.987 Y144.593 E2.73402
G1 X89.536 Y144.547 F6600.000
G1 X109.307 Y146.907 F6600.000
G1 X109.602 Y145.759 E2.75016 F1800.000
G1 X110.173 Y144.719 E2.76630
G1 X110.985 Y143.855 E2.78244
G1 X111.986 Y143.220 E2.79858
G1 X113.114 Y142.853 E2.81472
G1 X114.278 Y142.780 E2.83060 F1800.000
G1 X115.460 Y143.000 E2.84697
G1 X116.535 Y143.506 E2.86313
G1 X117.448 Y144.262 E2.87927
G1 X118.145 Y145.221 E2.89541
G1 X118.582 Y146.324 E2.91155
G1 X118.731 Y147.500 E2.92769
G1 X118.582 Y148.676 E2.94383
G1 X118.145 Y149.779 E2.95997
G1 X117.448 Y150.738 E2.97611
G1 X116.535 Y151.494 E2.99225
G1 X115.462 Y151.999 E3.00839
G1 X114.297 Y152.221 E3.02453
G1 X113.114 Y152.147 E3.04067
G1 X111.986 Y151.780 E3.05681
G1 X110.985 Y151.145 E3.07295
G1 X110.173 Y150.281 E3.08909
G1 X109.602 Y149.241 E3.10523
G1 X109.307 Y148.093 E3.12137
G1 X109.307 Y146.982 E3.13649
G1 X109.582 Y146.942 F6600.000
G1 X109.859 Y145.861 E3.15169 F1800.000
G1 X110.397 Y144.882 E3.16688
G1 X111.161 Y144.069 E3.18208
G1 X112.104 Y143.470 E3.19727
G1 X113.166 Y143.125 E3.21246
G1 X114.261 Y143.056 E3.22741 F1800.000
G1 X115.375 Y143.264 E3.24283
G1 X116.386 Y143.740 E3.25804
G1 X117.246 Y144.451 E3.27324
G1 X117.903 Y145.355 E3.28843
G1 X118.314 Y146.392 E3.30362
G1 X118.453 Y147.500 E3.31882
G1 X118.314 Y148.608 E3.33401
G1 X117.903 Y149.645 E3.34921
G1 X117.246 Y150.549 E3.36440
G1 X116.386 Y151.260 E3.37960
G1 X115.376 Y151.736 E3.39479
G1 X114.280 Y151.945 E3.40999
G1 X113.166 Y151.875 E3.42518
G1 X112.104 Y151.530 E3.44038
G1 X111.161 Y150.931 E3.45557
G1 X110.397 Y150.118 E3.47076
G1 X109.859 Y149.139 E3.48596
G1 X109.582 Y148.058 E3.50115
G1 X109.582 Y147.017 E3.51533
G1 X109.857 Y146.977 F6600.000
G1 X110.117 Y145.963 E3.52958 F1800.000
G1 X110.621 Y145.045 E3.54383
G1 X111.338 Y144.282 E3.55808
G1 X112.222 Y143.721 E3.57232
G1 X113.217 Y143.398 E3.58657
G1 X114.244 Y143.333 E3.60058 F1800.000
G1 X115.290 Y143.528 E3.61506
G1 X116.238 Y143.974 E3.62931
G1 X117.044 Y144.641 E3.64356
G1 X117.660 Y145.488 E3.65781
G1 X118.045 Y146.461 E3.67206
G1 X118.176 Y147.500 E3.68631
G1 X118.045 Y148.539 E3.70056
G1 X117.660 Y149.512 E3.71481
G1 X117.044 Y150.359 E3.72906
G1 X116.238 Y151.026 E3.74331
G1 X115.291 Y151.472 E3.75756
G1 X114.262 Y151.668 E3.77181
G1 X113.217 Y151.602 E3.78606
G1 X112.222 Y151.279 E3.80030
G1 X111.338 Y150.718 E3.81455
G1 X110.621 Y149.955 E3.82880
G1 X110.117 Y149.037 E3.84305
G1 X109.857 Y148.023 E3.85730
G1 X109.857 Y147.052 E3.87053
G1 X109.471 Y146.658 F6600.000
G1 X87.472 Y56.995 F6600.000
G1 X86.305 Y57.221 E3.88670 F1800.000
G1 X85.086 Y57.139 E3.90334
G1 X83.994 Y56.784 E3.91897
G1 X82.991 Y56.150 E3.93511
G1 X82.178 Y55.287 E3.95126
G1 X81.603 Y54.245 E3.96745
G1 X81.307 Y53.095 E3.98361
G1 X81.311 Y51.891 E4.00000
G1 X81.601 Y50.761 E4.01588
G1 X82.171 Y49.722 E4.03202
G1 X82.983 Y48.857 E4.04816
G1 X83.985 Y48.220 E4.06433
G1 X85.131 Y47.852 E4.08071
G1 X86.296 Y47.779 E4.09659 F1800.000
G1 X87.461 Y48.001 E4.11273
G1 X88.534 Y48.505 E4.12887
G1 X89.449 Y49.262 E4.14504
G1 X90.152 Y50.239 E4.16142
G1 X90.582 Y51.323 E4.17730
G1 X90.731 Y52.501 E4.19345
G1 X90.577 Y53.691 E4.20978
G1 X90.147 Y54.775 E4.22566
G1 X89.455 Y55.731 E4.24171
G1 X88.511 Y56.506 E4.25835
G1 X87.540 Y56.963 E4.27296
G1 X87.386 Y56.732 F6600.000
G1 X86.288 Y56.944 E4.28818 F1800.000
G1 X85.138 Y56.867 E4.30386
G1 X84.111 Y56.533 E4.31856
G1 X83.168 Y55.936 E4.33376
G1 X82.401 Y55.123 E4.34896
G1 X81.861 Y54.143 E4.36421
G1 X81.582 Y53.060 E4.37942
G1 X81.585 Y51.926 E4.39485
G1 X81.858 Y50.863 E4.40980
G1 X82.396 Y49.884 E4.42499
G1 X83.160 Y49.070 E4.44019
G1 X84.103 Y48.471 E4.45540
G1 X85.183 Y48.124 E4.47083
G1 X86.278 Y48.055 E4.48578 F1800.000
G1 X87.375 Y48.264 E4.50097
G1 X88.385 Y48.739 E4.51617
G1 X89.247 Y49.451 E4.53138
G1 X89.909 Y50.372 E4.54682
G1 X90.313 Y51.392 E4.56176
G1 X90.454 Y52.501 E4.57697
G1 X90.309 Y53.621 E4.59235
G1 X89.904 Y54.642 E4.60729
G1 X89.253 Y55.541 E4.62239
G1 X88.363 Y56.272 E4.63808
G1 X87.454 Y56.700 E4.65175
G1 X87.300 Y56.469 F6600.000
G1 X86.271 Y56.667 E4.66602 F1800.000
G1 X85.191 Y56.595 E4.68075
G1 X84.229 Y56.282 E4.69452
G1 X83.344 Y55.723 E4.70877
G1 X82.625 Y54.960 E4.72303
G1 X82.118 Y54.040 E4.73733
G1 X81.857 Y53.026 E4.75159
G1 X81.860 Y51.962 E4.76607
G1 X82.116 Y50.965 E4.78008
G1 X82.620 Y50.047 E4.79433
G1 X83.336 Y49.283 E4.80858
G1 X84.220 Y48.722 E4.82284
G1 X85.234 Y48.396 E4.83733
G1 X86.261 Y48.332 E4.85134 F1800.000
G1 X87.289 Y48.528 E4.86559
G1 X88.237 Y48.973 E4.87984
G1 X89.044 Y49.641 E4.89410
G1 X89.666 Y50.504 E4.90858
G1 X90.045 Y51.461 E4.92259
G1 X90.176 Y52.500 E4.93684
G1 X90.040 Y53.552 E4.95128
G1 X89.662 Y54.509 E4.96528
G1 X89.052 Y55.351 E4.97944
G1 X88.215 Y56.038 E4.99417
G1 X87.368 Y56.437 E5.00692
G1 X87.176 Y56.953 F6600.000
G1 E3.00692 F2400.00000
G92 E0
G1 X96.275 Y49.725 F6600.000
G1 E2.00000 F2400.00000
G1 X103.725 Y49.725 E2.10140 F1800.000
G1 X103.725 Y47.225 E2.13542
G1 X116.452 Y47.225 E2.30866
G1 X117.087 Y47.308 E2.31738
G1 X117.634 Y47.535 E2.32544
G1 X118.104 Y47.896 E2.33350
G1 X118.465 Y48.366 E2.34156
G1 X118.692 Y48.913 E2.34963
G1 X118.775 Y49.548 E2.35834
G1 X118.775 Y51.620 E2.38655
G1 X118.621 Y51.630 E2.38866
G1 X118.582 Y51.324 E2.39287
G1 X118.145 Y50.221 E2.40901
G1 X117.448 Y49.262 E2.42515
G1 X116.535 Y48.506 E2.44129
G1 X115.460 Y48.000 E2.45745
G1 X114.278 Y47.780 E2.47382
G1 X113.114 Y47.853 E2.48970
G1 X111.986 Y48.220 E2.50584
G1 X110.985 Y48.855 E2.52198
G1 X110.173 Y49.719 E2.53812
G1 X109.602 Y50.759 E2.55426
G1 X109.312 Y51.889 E2.57014
G1 X109.306 Y53.091 E2.58651
G1 X109.602 Y54.241 E2.60267
G1 X110.173 Y55.281 E2.61881
G1 X110.985 Y56.145 E2.63495
G1 X111.986 Y56.780 E2.65109
G1 X113.095 Y57.141 E2.66697
G1 X114.295 Y57.221 E2.68334
G1 X115.462 Y56.999 E2.69950
G1 X116.535 Y56.494 E2.71564
G1 X117.448 Y55.738 E2.73178
G1 X118.145 Y54.779 E2.74792
G1 X118.582 Y53.676 E2.76406
G1 X118.621 Y53.370 E2.76827
G1 X118.775 Y53.380 E2.77038
G1 X118.775 Y61.048 E2.87474
G1 X118.930 Y62.224 E2.89090
G1 X119.403 Y63.366 E2.90771
G1 X120.155 Y64.345 E2.92452
G1 X121.134 Y65.097 E2.94133
G1 X122.276 Y65.570 E2.95814
G1 X123.452 Y65.725 E2.97430
G1 X125.775 Y65.725 E3.00592
G1 X125.775 Y73.725 E3.11481
G1 X127.775 Y73.725 E3.14203
G1 X127.775 Y96.275 E3.44897
G1 X125.775 Y96.275 E3.47619
G1 X125.775 Y103.725 E3.57758
G1 X127.775 Y103.725 E3.60481
G1 X127.775 Y126.275 E3.91174
G1 X125.775 Y126.275 E3.93897
G1 X125.775 Y133.725 E4.04036
G1 X127.775 Y133.725 E4.06758
G1 X127.775 Y141.952 E4.17957
G1 X127.692 Y142.587 E4.18829
G1 X127.465 Y143.134 E4.19635
G1 X127.112 Y143.595 E4.20425
G1 X126.633 Y143.966 E4.21249
G1 X126.087 Y144.192 E4.22053
G1 X125.452 Y144.275 E4.22924
G1 X123.452 Y144.275 E4.25647
G1 X122.276 Y144.430 E4.27262
G1 X121.134 Y144.903 E4.28943
G1 X120.156 Y145.654 E4.30623
G1 X119.409 Y146.619 E4.32284
G1 X118.930 Y147.776 E4.33987
G1 X118.775 Y148.952 E4.35603
G1 X118.775 Y150.452 E4.37645
G1 X118.692 Y151.087 E4.38516
G1 X118.466 Y151.633 E4.39320
G1 X118.095 Y152.112 E4.40144
G1 X117.634 Y152.465 E4.40934
G1 X117.087 Y152.692 E4.41740
G1 X116.452 Y152.775 E4.42612
G1 X103.725 Y152.775 E4.59936
G1 X103.725 Y150.275 E4.63338
G1 X96.275 Y150.275 E4.73478
G1 X96.275 Y152.775 E4.76881
G1 X83.548 Y152.775 E4.94205
G1 X82.913 Y152.692 E4.95076
G1 X82.366 Y152.465 E4.95882
G1 X81.896 Y152.104 E4.96689
G1 X81.535 Y151.634 E4.97495
G1 X81.308 Y151.087 E4.98301
G1 X81.225 Y150.452 E4.99172
G1 X81.225 Y148.354 E5.02029
G1 X81.369 Y148.335 E5.02227
G1 X81.602 Y149.241 E5.03500
G1 X82.173 Y150.281 E5.05114
G1 X82.985 Y151.145 E5.06728
G1 X83.986 Y151.780 E5.08342
G1 X85.114 Y152.147 E5.09956
G1 X86.297 Y152.221 E5.11570
G1 X87.462 Y151.999 E5.13184
G1 X88.535 Y151.494 E5.14798
G1 X89.448 Y150.738 E5.16412
G1 X90.145 Y149.779 E5.18026
G1 X90.582 Y148.676 E5.19640
G1 X90.731 Y147.500 E5.21254
G1 X90.582 Y146.324 E5.22868
G1 X90.145 Y145.221 E5.24482
G1 X89.448 Y144.262 E5.26096
G1 X88.535 Y143.506 E5.27710
G1 X87.460 Y143.000 E5.29326
G1 X86.278 Y142.780 E5.30963
G1 X85.114 Y142.853 E5.32551
G1 X83.986 Y143.220 E5.34165
G1 X82.985 Y143.855 E5.35779
G1 X82.173 Y144.719 E5.37393
G1 X81.602 Y145.759 E5.39007
G1 X81.369 Y146.665 E5.40280
G1 X81.225 Y146.646 E5.40478
G1 X81.225 Y138.952 E5.50950
G1 X81.070 Y137.776 E5.52566
G1 X80.597 Y136.634 E5.54247
G1 X79.857 Y135.670 E5.55901
G1 X78.867 Y134.903 E5.57606
G1 X77.724 Y134.430 E5.59290
G1 X76.548 Y134.275 E5.60905
G1 X74.225 Y134.275 E5.64067
G1 X74.225 Y126.275 E5.74956
G1 X72.225 Y126.275 E5.77678
G1 X72.225 Y103.725 E6.08372
G1 X74.225 Y103.725 E6.11094
G1 X74.225 Y96.275 E6.21234
G1 X72.225 Y96.275 E6.23956
G1 X72.225 Y73.725 E6.54649
G1 X74.225 Y73.725 E6.57372
G1 X74.225 Y66.275 E6.67511
G1 X72.225 Y66.275 E6.70234
G1 X72.225 Y58.048 E6.81432
G1 X72.308 Y57.413 E6.82304
G1 X72.535 Y56.866 E6.83110
G1 X72.896 Y56.396 E6.83916
G1 X73.366 Y56.035 E6.84722
G1 X73.913 Y55.808 E6.85529
G1 X74.548 Y55.725 E6.86400
G1 X76.548 Y55.725 E6.89122
G1 X77.724 Y55.570 E6.90738
G1 X78.866 Y55.097 E6.92419
G1 X79.845 Y54.345 E6.94100
G1 X80.597 Y53.366 E6.95781
G1 X81.070 Y52.224 E6.97462
G1 X81.225 Y51.048 E6.99078
G1 X81.225 Y49.547 E7.01120
G1 X81.308 Y48.913 E7.01991
G1 X81.535 Y48.366 E7.02797
G1 X81.896 Y47.896 E7.03604
G1 X82.366 Y47.535 E7.04410
G1 X82.913 Y47.308 E7.05216
G1 X83.548 Y47.225 E7.06087
G1 X96.275 Y47.225 E7.23411
G1 X96.275 Y49.650 E7.26712
G1 X109.586 Y51.924 F6600.000
G1 X109.859 Y50.861 E7.28206 F1800.000
G1 X110.397 Y49.882 E7.29726
G1 X111.161 Y49.069 E7.31245
G1 X112.104 Y48.470 E7.32765
G1 X113.165 Y48.125 E7.34284
G1 X114.261 Y48.056 E7.35778 F1800.000
G1 X115.375 Y48.264 E7.37321
G1 X116.386 Y48.740 E7.38842
G1 X117.246 Y49.451 E7.40361
G1 X117.903 Y50.355 E7.41881
G1 X118.314 Y51.392 E7.43400
G1 X118.453 Y52.500 E7.44920
G1 X118.314 Y53.608 E7.46439
G1 X117.903 Y54.645 E7.47958
G1 X117.246 Y55.549 E7.49478
G1 X116.386 Y56.260 E7.50997
G1 X115.376 Y56.735 E7.52517
G1 X114.279 Y56.945 E7.54038
G1 X113.148 Y56.869 E7.55580
G1 X112.104 Y56.530 E7.57074
G1 X111.161 Y55.931 E7.58594
G1 X110.397 Y55.118 E7.60113
G1 X109.859 Y54.139 E7.61633
G1 X109.581 Y53.057 E7.63154
G1 X109.586 Y51.999 E7.64594
G1 X109.861 Y51.959 F6600.000
G1 X110.117 Y50.963 E7.65995 F1800.000
G1 X110.621 Y50.045 E7.67420
G1 X111.338 Y49.282 E7.68844
G1 X112.222 Y48.721 E7.70269
G1 X113.217 Y48.398 E7.71694
G1 X114.244 Y48.333 E7.73095 F1800.000
G1 X115.290 Y48.528 E7.74543
G1 X116.238 Y48.974 E7.75968
G1 X117.044 Y49.641 E7.77393
G1 X117.660 Y50.488 E7.78818
G1 X118.045 Y51.461 E7.80243
G1 X118.176 Y52.500 E7.81668
G1 X118.045 Y53.539 E7.83093
G1 X117.660 Y54.512 E7.84518
G1 X117.044 Y55.359 E7.85943
G1 X116.238 Y56.026 E7.87368
G1 X115.291 Y56.472 E7.88793
G1 X114.262 Y56.668 E7.90218
G1 X113.200 Y56.597 E7.91666
G1 X112.222 Y56.279 E7.93067
G1 X111.338 Y55.718 E7.94492
G1 X110.621 Y54.955 E7.95917
G1 X110.117 Y54.037 E7.97341
G1 X109.856 Y53.023 E7.98767
G1 X109.861 Y52.034 E8.00113
G1 X109.476 Y51.640 F6600.000
G1 X103.450 Y49.450 F6600.000
G1 X103.450 Y46.950 E8.03516 F1800.000
G1 X116.471 Y46.950 E8.21238
G1 X117.159 Y47.041 E8.22183
G1 X117.773 Y47.295 E8.23088
G1 X118.300 Y47.700 E8.23993
G1 X118.705 Y48.227 E8.24898
G1 X118.959 Y48.841 E8.25802
G1 X119.050 Y49.529 E8.26747
G1 X119.050 Y61.029 E8.42400
G1 X119.198 Y62.153 E8.43942
G1 X119.643 Y63.227 E8.45525
G1 X120.351 Y64.149 E8.47107
G1 X121.273 Y64.857 E8.48690
G1 X122.347 Y65.302 E8.50272
G1 X123.471 Y65.450 E8.51814
G1 X126.050 Y65.450 E8.55326
G1 X126.050 Y73.450 E8.66214
G1 X128.050 Y73.450 E8.68937
G1 X128.050 Y96.550 E9.00379
G1 X126.050 Y96.550 E9.03101
G1 X126.050 Y103.450 E9.12492
G1 X128.050 Y103.450 E9.15214
G1 X128.050 Y126.550 E9.46656
G1 X126.050 Y126.550 E9.49379
G1 X126.050 Y133.450 E9.58770
G1 X128.050 Y133.450 E9.61492
G1 X128.050 Y141.971 E9.73090
G1 X127.959 Y142.659 E9.74035
G1 X127.705 Y143.273 E9.74940
G1 X127.308 Y143.790 E9.75827
G1 X126.772 Y144.205 E9.76750
G1 X126.159 Y144.459 E9.77653
G1 X125.471 Y144.550 E9.78598
G1 X123.471 Y144.550 E9.81321
G1 X122.347 Y144.698 E9.82863
